X:810
T:Reel 810
M:4/4
K:Dmix
L:1/8
AG|FEFG Addc|Addc Add2|FEFG ABcA|GECE G2AG|FEFG ABAB|cdde fedc|ABAG FGAB|cAGE FDD|g|fdeg fdec|Addc Adde|fdeg fdec|ABcd e2fg|afge fdec|Addc Addg|fdec dcAG|EDEF G2|
